X:425
T: AM SONNTAG DA ISST DER MEISTER BOHNE
N: E1617
O: Europa, Mitteleuropa, Deutschland, Pommern
R: Staende -, Handwerker -, Gesellen - Lied
M: 2/4
L: 1/16
K: D
A2 | A4F2A2 | A4F2
A2 | B3Gd2B2 | B2A2A2
F2 | G2G2B2F2 | F2F2A2
F2 | E2E2G2C2 | E2D2D4 |
A3BA2G2 | F2E2D2
A2 | A3BA2G2 | F2E2D2
d2 | D4D2d2 | D4D2

@@@ Tune index: 5109
